svgs/thin/utensils.svg

<svg xmlns="http://www.w3.org/2000/svg" viewBox="0 0 512 512"><!--! Font Awesome Pro 6.0.0-alpha3 by @fontawesome - https://fontawesome.com License - https://fontawesome.com/license (Commercial License) --><path d="M225.3 6.199C224.3 1.918 219.9-.707 215.7 .168c-4.313 1-7.004 5.281-6.031 9.594l27.59 121.5C248.2 182.5 226.2 220.1 173.5 240.1C173.4 240.1 171.5 240.8 171.5 240.8C168.3 242.1 166.3 245.2 166.5 248.6l9.594 232.7c.0938 3.844-1.5 7.844-4.281 10.66C169.1 493.8 166.8 495.1 161.9 495.1H126.5c-5.004 0-8.254-2.25-10.13-4.156c-2.781-2.844-4.375-6.781-4.281-10.41l9.563-232.8C121.7 245.2 119.7 242.1 116.6 240.9C116.6 240.8 114.7 240.1 114.7 240.1c-36.72-13.97-77.63-44-64.04-107.9l27.82-122.4C79.43 5.449 76.74 1.168 72.43 .168C68.3-.707 63.83 1.918 62.83 6.199L35.02 128.8C22.92 185.7 47.36 229.6 105.4 253.6l-9.344 227.3c-.1875 8.125 3.031 16.19 8.844 22.13C110.6 508.8 118.2 512 126.5 512h35.41c8.188 0 15.78-3.156 21.38-8.875c5.781-5.939 9.004-14.03 8.813-22.38L182.7 253.6c57.7-23.25 82.61-67.79 70.2-125.8L225.3 6.199zM455.1 .0195c-56.66 0-235.7 147.1-61.98 301.7l-9.997 176.7C383.1 496.7 397.7 512 415.1 512h32C465.7 512 480 497.7 480 480V24.02C480 10.83 469.3 .0195 455.1 .0195zM463.1 480c0 8.822-7.18 16-16 16h-32c-4.422 0-8.531-1.762-11.59-4.959c-3.047-3.197-4.613-7.391-4.41-11.66l10.43-184.4l-5.773-5.139c-61.27-54.53-82.04-113.9-60.05-171.6c24.2-63.56 89.25-102.2 111.4-102.2c4.41 0 8.004 3.588 8.004 8V480zM120 160c4.406 0 8-3.594 8-8v-144c0-4.406-3.594-8-8-8c-4.406 0-8 3.594-8 8v144C112 156.4 115.6 160 120 160zM168 160C172.4 160 176 156.4 176 152v-144c0-4.406-3.594-8-8-8s-8 3.594-8 8v144C160 156.4 163.6 160 168 160z"/></svg>

<svg xmlns="http://www.w3.org/2000/svg" viewBox="0 0 512 512"><!-- Font Awesome Pro 6.0.0-alpha2 by @fontawesome - https://fontawesome.com License - https://fontawesome.com/license (Commercial License) --><path d="M225.29 6.199C224.321 1.918 219.946 -0.707 215.696 0.168C211.384 1.168 208.692 5.449 209.665 9.762L237.259 131.266C248.228 182.455 226.165 220.113 173.47 240.082C173.407 240.113 171.532 240.832 171.501 240.832C168.345 242.113 166.345 245.209 166.47 248.615L176.063 481.279C176.157 485.123 174.563 489.123 171.782 491.936C169.97 493.779 166.782 495.998 161.876 495.998H126.466C121.462 495.998 118.212 493.748 116.337 491.842C113.555 488.998 111.962 485.061 112.055 481.436L121.618 248.615C121.743 245.209 119.743 242.113 116.618 240.863C116.555 240.832 114.712 240.113 114.68 240.113C77.962 226.145 37.047 196.113 50.641 132.203L78.462 9.762C79.43 5.449 76.743 1.168 72.43 0.168C68.301 -0.707 63.833 1.918 62.833 6.199L35.016 128.766C22.922 185.674 47.36 229.613 105.399 253.615L96.055 480.904C95.868 489.029 99.087 497.092 104.899 503.031C110.555 508.812 118.212 512 126.466 512H161.876C170.063 512 177.657 508.844 183.251 503.125C189.032 497.186 192.255 489.092 192.064 480.748L182.688 253.646C240.384 230.395 265.294 185.861 252.884 127.797L225.29 6.199ZM455.996 0.002C399.332 0.002 220.296 147.133 394.019 301.742L384.023 478.475C383.148 496.727 397.715 512 415.992 512H447.996C465.672 512 480 497.674 480 480V24.002C480 10.814 469.312 0.002 455.996 0.002ZM464 480C464 488.822 456.82 496 447.996 496H415.992C411.57 496 407.461 494.238 404.406 491.041C401.359 487.844 399.793 483.65 399.996 479.379L409.992 302.646L410.429 294.93L404.656 289.791C343.386 235.262 322.621 175.912 344.605 118.16C368.8 54.598 433.851 16.002 455.996 16.002C460.406 16.002 464 19.59 464 24.002V480ZM120.001 160C124.407 160 128.001 156.406 128.001 152V8C128.001 3.594 124.407 0 120.001 0C115.595 0 112.001 3.594 112.001 8V152C112.001 156.406 115.595 160 120.001 160ZM168.001 160C172.407 160 176.001 156.406 176.001 152V8C176.001 3.594 172.407 0 168.001 0S160.001 3.594 160.001 8V152C160.001 156.406 163.595 160 168.001 160Z"/></svg>
